!!!OTL@@DE: Trinklied
!!!COM: Arndt, E.M.
!!!OMD: Heiter
!!!LYR: Arndt, E.M.
!!!LDT: 1817
!!!OCL: Erk, Ludwig
!!!GCO: Deutscher Liederschatz, Band 2
**kern	**kern	**kern
*staff3	*staff2	*staff1
*Ipiano	*Ipiano	*Ivox
*>[A,B,B]	*>[A,B,B]	*>[A,B,B]
*>A	*>A	*>A
=1-	=1-	=1-
*clefF4	*clefG2	*clefG2
*k[f#c#]	*k[f#c#]	*k[f#c#]
*D:	*D:	*D:
*met(C)	*met(C)	*met(C)
*M4/4	*M4/4	*M4/4
*MM120	*MM120	*MM120
4A\	4a/	4a/
4A\	4a/	4a/
4.d\	4.dd\	4.dd\
8A\	8a/	8a/
=2	=2	=2
4F#\	4f#/	4f#/
4F#\	4f#/	4f#/
4.A\	4.a/	4.a/
8F#\	8f#/	8f#/
=3	=3	=3
2D\	2d/	2d/
2AA\ 2A\	2c#/ 2e/	2e/
=4	=4	=4
2D\ 2A\	2d/ 2f#/	2f#/
2r	2r	2r
=5!|:	=5!|:	=5!|:
*>B	*>B	*>B
4D\ 4d\	4b\ 4dd\	4dd\
4D\ 4d\	4a\ 4cc#\	4cc#\
4D\ 4d\	4g/ 4b/	4b\
4D\ 4d\	4f#/ 4a/	4a/
=6	=6	=6
4.D\ 4.d\	4.g/ 4.b/	4.b\
8D\ 8A\	8f#/ 8a/	8a/
4D\ 4A\	4e/ 4g/	4g/
4D\ 4A\	4d/ 4f#/	4f#/
=7	=7	=7
4AA\ 4A\	4c#/ 4e/	4e/
4AA\ 4A\	4d/ 4f#/	4f#/
4AA\ 4A\	4e/ 4g/	4g/
4AA\ 4A\	4c#/ 4e/	4e/
=8	=8	=8
4.AA\ 4.A\	4.f#/ 4.a/	4.a/
8A\	8e/ 8g/	8g/
4A\	4d/ 4f#/	4f#/
4A\	4c#/ 4e/	4e/
=9	=9	=9
2F#\ 2A\	2d/ 2a/ 2dd/	2dd\
2C#\ 2A\	2g\ 2a\ 2ee\	2ee\
=10	=10	=10
*^	*^	*
1A	(4D\	(4ff#/	1f# 1a	(4ff#\
.	2.F#\)	2.dd/)	.	2dd\)
.	.	.	.	4r
*v	*v	*	*	*
*	*v	*v	*
=11	=11	=11
2A\	2d/ 2f#/ 2a/	2a/
2AA\ 2A\	2e/ 2g/ 2cc#/	2cc#\
=12	=12	=12
2D\ 2A\	2d/ 2f#/ 2dd/	2dd\
2r	2r	2r
==:|!	==:|!	==:|!
*-	*-	*-
!!!ENC: Craig Stuart Sapp
!!!END: 2004/05/20/
!!!EFL: 217/600
